; generated by PrusaSlicer 2.5.2+win64 on 2023-08-25 at 13:16:13 UTC


;
;

;
;
; 

; external perimeters extrusion width = 0.45mm
; perimeters extrusion width = 0.45mm
; infill extrusion width = 0.45mm
; solid infill extrusion width = 0.45mm
; top infill extrusion width = 0.40mm
; first layer extrusion width = 0.42mm

; external perimeters extrusion width = 0.45mm
; perimeters extrusion width = 0.45mm
; infill extrusion width = 0.45mm
; solid infill extrusion width = 0.45mm
; top infill extrusion width = 0.40mm
; first layer extrusion width = 0.42mm

; external perimeters extrusion width = 0.45mm
; perimeters extrusion width = 0.45mm
; infill extrusion width = 0.45mm
; solid infill extrusion width = 0.45mm
; top infill extrusion width = 0.40mm
; first layer extrusion width = 0.42mm

; external perimeters extrusion width = 0.45mm
; perimeters extrusion width = 0.45mm
; infill extrusion width = 0.45mm
; solid infill extrusion width = 0.45mm
; top infill extrusion width = 0.40mm
; first layer extrusion width = 0.42mm

; external perimeters extrusion width = 0.45mm
; perimeters extrusion width = 0.45mm
; infill extrusion width = 0.45mm
; solid infill extrusion width = 0.45mm
; top infill extrusion width = 0.40mm
; first layer extrusion width = 0.42mm

; external perimeters extrusion width = 0.45mm
; perimeters extrusion width = 0.45mm
; infill extrusion width = 0.45mm
; solid infill extrusion width = 0.45mm
; top infill extrusion width = 0.40mm
; first layer extrusion width = 0.42mm

M73 P0 R27
M201 X1250 Y1250 Z400 E5000 ; sets maximum accelerations, mm/sec^2
M203 X180 Y180 Z12 E80 ; sets maximum feedrates, mm / sec
M204 P1250 R1250 T1250 ; sets acceleration (P, T) and retract acceleration (R), mm/sec^2
M205 X8.00 Y8.00 Z2.00 E10.00 ; sets the jerk limits, mm/sec
M205 S0 T0 ; sets the minimum extruding and travel feed rate, mm/sec
M107
;TYPE:Custom
G90 ; use absolute coordinates
M83 ; extruder relative mode
M104 S170 ; set extruder temp for bed leveling
M140 S60 ; set bed temp
M109 R170 ; wait for bed leveling temp
M190 S60 ; wait for bed temp
G28 ; home all without mesh bed level
G29 ; mesh bed leveling 
M104 S215 ; set extruder temp
G92 E0.0
G1 Y-2.0 X179 F2400
G1 Z3 F720
M109 S215 ; wait for extruder temp

; intro line
G1 X170 F1000
G1 Z0.2 F720
G1 X110.0 E8.0 F900
G1 X40.0 E10.0 F700
G92 E0.0

M221 S95 ; set flow
G21 ; set units to millimeters
G90 ; use absolute coordinates
M83 ; use relative distances for extrusion
M900 K0.2 ; Filament gcode LA 1.5
; ; Filament gcode LA 1.0
M107
;LAYER_CHANGE
;Z:0.2
;HEIGHT:0.2
;BEFORE_LAYER_CHANGE
G92 E0.0
;0.2


G1 E-3.2 F4200
M73 P0 R26
G1 Z.2 F9000
;AFTER_LAYER_CHANGE
;0.2
G1 Z.4
G1 X73.686 Y80.185
G1 Z.2
M73 P1 R26
G1 E3.2 F2400
M204 S800
;TYPE:Skirt/Brim
;WIDTH:0.42
G1 F1200
G1 X74.514 Y79.467 E.03436
G1 X75.154 Y79.086 E.02336
G1 X75.842 Y78.8 E.02336
G1 X76.563 Y78.614 E.02335
G1 X77.5 Y78.526 E.02951
G1 X102.696 Y78.533 E.79002
G1 X103.781 Y78.689 E.03436
G1 X104.489 Y78.923 E.02336
G1 X105.486 Y79.467 E.03563
G1 X106.065 Y79.936 E.02335
G1 X106.751 Y80.722 E.03269
G1 X107.164 Y81.404 E.02502
G1 X107.45 Y82.092 E.02336
G1 X107.692 Y83.202 E.03562
G1 X107.692 Y96.798 E.42629
G1 X107.45 Y97.908 E.03563
G1 X106.995 Y98.905 E.03436
G1 X106.314 Y99.815 E.03563
G1 X105.486 Y100.533 E.03436
G1 X104.846 Y100.914 E.02335
G1 X104.158 Y101.2 E.02336
G1 X103.437 Y101.386 E.02335
G1 X102.5 Y101.474 E.02951
G1 X77.304 Y101.467 E.79002
G1 X76.219 Y101.311 E.03436
G1 X75.512 Y101.077 E.02335
G1 X74.845 Y100.745 E.02335
G1 X73.935 Y100.064 E.03563
G1 X73.217 Y99.236 E.03436
G1 X72.836 Y98.596 E.02336
G1 X72.55 Y97.908 E.02336
G1 X72.364 Y97.187 E.02335
G1 X72.283 Y96.446 E.02336
G1 X72.283 Y83.554 E.40425
G1 X72.364 Y82.813 E.02335
G1 X72.55 Y82.092 E.02335
G1 X73.005 Y81.095 E.03436
G1 X73.65 Y80.233 E.03375
M204 S1250
G1 X73.949 Y80.457 F9000
M204 S800
G1 F1200
G1 X74.74 Y79.769 E.03287
G1 X75.974 Y79.153 E.04323
G1 X76.643 Y78.983 E.02167
G1 X77.5 Y78.903 E.02698
G1 X102.67 Y78.909 E.78917
G1 X103.701 Y79.058 E.03268
G1 X104.357 Y79.276 E.02167
G1 X105.26 Y79.769 E.03226
G1 X105.798 Y80.203 E.02167
G1 X106.449 Y80.948 E.03101
G1 X106.833 Y81.585 E.02333
G1 X107.097 Y82.224 E.02167
G1 X107.316 Y83.229 E.03226
G1 X107.316 Y96.771 E.4246
G1 X107.097 Y97.777 E.03226
G1 X106.664 Y98.724 E.03268
G1 X106.047 Y99.548 E.03226
G1 X105.26 Y100.231 E.03268
G1 X104.026 Y100.847 E.04323
G1 X103.357 Y101.017 E.02167
G1 X102.5 Y101.097 E.02698
G1 X77.33 Y101.091 E.78917
G1 X75.973 Y100.847 E.04323
G1 X75.026 Y100.414 E.03267
G1 X74.202 Y99.797 E.03226
G1 X73.519 Y99.01 E.03268
G1 X72.903 Y97.776 E.04323
G1 X72.659 Y96.42 E.04323
G1 X72.659 Y83.58 E.40256
G1 X72.903 Y82.223 E.04323
G1 X73.336 Y81.276 E.03267
G1 X73.913 Y80.505 E.03018
M204 S1250
; printing object Nozzle2.6x0.4.STL id:3 copy 0
G1 E-2.24 F4200
;WIPE_START
G1 F7200
G1 X74.74 Y79.769 E-.61348
G1 X75.222 Y79.529 E-.29852
;WIPE_END
G1 E-.048 F4200
G1 Z.4 F9000
G1 X101.626 Y81.872
G1 Z.2
G1 E3.2 F2400
M204 S800
;TYPE:External perimeter
;WIDTH:0.59211
G1 F1200
G1 X101.999 Y81.735 E.01816
;WIDTH:0.60838
G1 X102.5 Y81.671 E.02373
G1 X103.086 Y81.754 E.02783
;WIDTH:0.605358
G1 X103.682 Y82.042 E.03098
;WIDTH:0.608318
G1 X104.071 Y82.389 E.02448
G1 X104.392 Y82.886 E.02783
;WIDTH:0.60616
G1 X104.56 Y83.454 E.02774
;WIDTH:0.603388
G1 X104.564 Y83.509 E.00259
;WIDTH:0.608136
G1 X104.558 Y84.046 E.02522
G1 X104.392 Y84.614 E.02782
;WIDTH:0.606838
G1 X104.045 Y85.141 E.02959
;WIDTH:0.607824
G1 X103.624 Y85.499 E.02596
G1 X103.086 Y85.745 E.0278
;WIDTH:0.607394
G1 X102.476 Y85.83 E.02888
;WIDTH:0.599542
G1 X101.83 Y85.715 E.03037
;WIDTH:0.607826
G1 X101.376 Y85.499 E.02364
G1 X100.922 Y85.107 E.02817
;WIDTH:0.60171
G1 X100.581 Y84.544 E.03059
;WIDTH:0.608136
G1 X100.442 Y84.046 E.0243
G1 X100.44 Y83.454 E.02783
;WIDTH:0.603388
G1 X100.636 Y82.832 E.0304
;WIDTH:0.608316
G1 X100.929 Y82.389 E.02497
G1 X101.318 Y82.042 E.02447
;WIDTH:0.59378
G1 X101.574 Y81.901 E.01339
M204 S1250
; stop printing object Nozzle2.6x0.4.STL id:3 copy 0
; printing object Nozzle2.2x0.8.STL id:2 copy 0
G1 E-2.24 F4200
;WIPE_START
G1 F7200
G1 X101.999 Y81.735 E-.25331
G1 X102.5 Y81.671 E-.27967
G1 X103.086 Y81.754 E-.32804
G1 X103.169 Y81.794 E-.05097
;WIPE_END
G1 E-.048 F4200
G1 Z.4 F9000
G1 X101.626 Y94.372
G1 Z.2
G1 E3.2 F2400
M204 S800
;WIDTH:0.59211
G1 F1200
G1 X101.999 Y94.235 E.01816
;WIDTH:0.60838
G1 X102.5 Y94.171 E.02373
G1 X103.086 Y94.254 E.02783
;WIDTH:0.605358
G1 X103.682 Y94.542 E.03098
;WIDTH:0.608318
G1 X104.071 Y94.889 E.02448
G1 X104.392 Y95.386 E.02783
;WIDTH:0.60616
G1 X104.56 Y95.954 E.02774
;WIDTH:0.603388
G1 X104.564 Y96.009 E.00259
;WIDTH:0.608136
G1 X104.558 Y96.546 E.02522
G1 X104.392 Y97.114 E.02782
;WIDTH:0.606838
G1 X104.045 Y97.641 E.02959
;WIDTH:0.607824
G1 X103.624 Y97.999 E.02596
G1 X103.086 Y98.245 E.0278
;WIDTH:0.607394
G1 X102.476 Y98.33 E.02888
;WIDTH:0.599542
G1 X101.83 Y98.215 E.03037
;WIDTH:0.607826
G1 X101.376 Y97.999 E.02364
G1 X100.922 Y97.607 E.02817
;WIDTH:0.60171
G1 X100.581 Y97.044 E.03059
;WIDTH:0.608136
G1 X100.442 Y96.546 E.0243
G1 X100.44 Y95.954 E.02783
;WIDTH:0.603388
G1 X100.636 Y95.332 E.0304
;WIDTH:0.608316
G1 X100.929 Y94.889 E.02497
G1 X101.318 Y94.542 E.02447
;WIDTH:0.59378
G1 X101.574 Y94.401 E.01339
M204 S1250
; stop printing object Nozzle2.2x0.8.STL id:2 copy 0
; printing object Nozzle1.5mm.STL id:0 copy 0
G1 E-2.24 F4200
;WIPE_START
G1 F7200
G1 X101.999 Y94.235 E-.25331
G1 X102.5 Y94.171 E-.27967
G1 X103.086 Y94.254 E-.32804
G1 X103.169 Y94.294 E-.05097
;WIPE_END
G1 E-.048 F4200
G1 Z.4 F9000
G1 X89.126 Y94.372
G1 Z.2
G1 E3.2 F2400
M204 S800
;WIDTH:0.59211
G1 F1200
G1 X89.499 Y94.235 E.01816
;WIDTH:0.60838
G1 X90 Y94.171 E.02373
G1 X90.586 Y94.254 E.02783
;WIDTH:0.605358
G1 X91.182 Y94.542 E.03098
;WIDTH:0.608318
G1 X91.571 Y94.889 E.02448
G1 X91.892 Y95.386 E.02783
;WIDTH:0.60616
G1 X92.064 Y96.009 E.03029
;WIDTH:0.608136
G1 X92.058 Y96.546 E.02522
G1 X91.892 Y97.114 E.02782
;WIDTH:0.606838
G1 X91.545 Y97.641 E.02959
;WIDTH:0.607824
G1 X91.124 Y97.999 E.02596
G1 X90.713 Y98.198 E.02146
;WIDTH:0.607394
G1 X90.586 Y98.245 E.00636
G1 X89.976 Y98.33 E.02888
;WIDTH:0.599542
G1 X89.33 Y98.215 E.03037
;WIDTH:0.607826
G1 X88.876 Y97.999 E.02364
G1 X88.422 Y97.607 E.02817
;WIDTH:0.60171
G1 X88.081 Y97.044 E.03059
;WIDTH:0.608136
G1 X87.942 Y96.546 E.0243
G1 X87.94 Y95.954 E.02783
;WIDTH:0.603388
G1 X88.136 Y95.332 E.0304
;WIDTH:0.608316
G1 X88.429 Y94.889 E.02497
G1 X88.818 Y94.542 E.02447
;WIDTH:0.59378
G1 X89.074 Y94.401 E.01339
M204 S1250
; stop printing object Nozzle1.5mm.STL id:0 copy 0
; printing object Nozzle1mm.STL id:1 copy 0
G1 E-2.24 F4200
;WIPE_START
G1 F7200
G1 X89.499 Y94.235 E-.25331
G1 X90 Y94.171 E-.27967
G1 X90.586 Y94.254 E-.32804
G1 X90.669 Y94.294 E-.05097
;WIPE_END
G1 E-.048 F4200
G1 Z.4 F9000
G1 X91.545 Y85.141
G1 Z.2
G1 E3.2 F2400
M204 S800
;WIDTH:0.607824
G1 F1200
G1 X91.124 Y85.499 E.02596
G1 X90.586 Y85.745 E.0278
;WIDTH:0.607394
G1 X89.976 Y85.83 E.02888
;WIDTH:0.599542
G1 X89.33 Y85.715 E.03037
;WIDTH:0.607826
G1 X88.876 Y85.499 E.02364
G1 X88.422 Y85.107 E.02817
;WIDTH:0.601708
G1 X88.081 Y84.544 E.03059
;WIDTH:0.608138
G1 X87.942 Y84.046 E.0243
G1 X87.94 Y83.454 E.02783
;WIDTH:0.603388
G1 X88.136 Y82.832 E.0304
;WIDTH:0.608318
G1 X88.429 Y82.389 E.02497
G1 X88.818 Y82.042 E.02447
;WIDTH:0.59378
G1 X89.126 Y81.872 E.01614
;WIDTH:0.59211
G1 X89.499 Y81.735 E.01816
;WIDTH:0.608332
G1 X90 Y81.671 E.02373
G1 X90.586 Y81.754 E.02783
;WIDTH:0.605358
G1 X91.182 Y82.042 E.03098
;WIDTH:0.608318
G1 X91.571 Y82.389 E.02448
G1 X91.892 Y82.886 E.02783
;WIDTH:0.60616
G1 X92.06 Y83.454 E.02774
;WIDTH:0.603388
G1 X92.064 Y83.509 E.00259
;WIDTH:0.608136
G1 X92.058 Y84.046 E.02522
G1 X91.892 Y84.614 E.02782
;WIDTH:0.606838
G1 X91.578 Y85.091 E.02677
M204 S1250
; stop printing object Nozzle1mm.STL id:1 copy 0
; printing object NozzleHex.STL id:5 copy 0
G1 E-2.24 F4200
;WIPE_START
G1 F7200
G1 X91.124 Y85.499 E-.33826
G1 X90.586 Y85.745 E-.32796
G1 X90.147 Y85.806 E-.24578
;WIPE_END
G1 E-.048 F4200
G1 Z.4 F9000
G1 X76.626 Y81.872
G1 Z.2
G1 E3.2 F2400
M204 S800
;WIDTH:0.59211
G1 F1200
G1 X76.999 Y81.735 E.01816
;WIDTH:0.60838
G1 X77.5 Y81.671 E.02373
G1 X78.086 Y81.754 E.02783
;WIDTH:0.605358
G1 X78.682 Y82.042 E.03098
;WIDTH:0.608318
G1 X79.071 Y82.389 E.02448
G1 X79.392 Y82.886 E.02783
;WIDTH:0.60616
G1 X79.56 Y83.454 E.02774
;WIDTH:0.603388
G1 X79.564 Y83.509 E.00259
;WIDTH:0.608136
G1 X79.558 Y84.046 E.02522
G1 X79.392 Y84.614 E.02782
;WIDTH:0.606838
G1 X79.045 Y85.141 E.02959
;WIDTH:0.607824
G1 X78.624 Y85.499 E.02596
M73 P2 R26
G1 X78.086 Y85.745 E.0278
;WIDTH:0.607394
G1 X77.476 Y85.83 E.02888
;WIDTH:0.599542
G1 X76.83 Y85.715 E.03037
;WIDTH:0.607826
G1 X76.376 Y85.499 E.02364
G1 X75.922 Y85.107 E.02817
;WIDTH:0.60171
G1 X75.581 Y84.544 E.03059
;WIDTH:0.608136
G1 X75.442 Y84.046 E.0243
G1 X75.44 Y83.454 E.02783
;WIDTH:0.603388
G1 X75.636 Y82.832 E.0304
;WIDTH:0.608316
G1 X75.929 Y82.389 E.02497
G1 X76.318 Y82.042 E.02447
;WIDTH:0.59378
G1 X76.574 Y81.901 E.01339
M204 S1250
; stop printing object NozzleHex.STL id:5 copy 0
; printing object Nozzle2mm.STL id:4 copy 0
G1 E-2.24 F4200
;WIPE_START
G1 F7200
G1 X76.999 Y81.735 E-.25331
G1 X77.5 Y81.671 E-.27967
G1 X78.086 Y81.754 E-.32804
G1 X78.169 Y81.794 E-.05097
;WIPE_END
G1 E-.048 F4200
G1 Z.4 F9000
G1 X76.626 Y94.372
G1 Z.2
G1 E3.2 F2400
M204 S800
;WIDTH:0.59211
G1 F1200
G1 X76.999 Y94.235 E.01816
;WIDTH:0.608332
G1 X77.5 Y94.171 E.02373
G1 X78.086 Y94.254 E.02783
;WIDTH:0.605358
G1 X78.682 Y94.542 E.03098
;WIDTH:0.608318
G1 X79.071 Y94.889 E.02448
G1 X79.392 Y95.386 E.02783
;WIDTH:0.60616
G1 X79.56 Y95.954 E.02774
;WIDTH:0.603388
G1 X79.564 Y96.009 E.00259
;WIDTH:0.608136
G1 X79.558 Y96.546 E.02522
G1 X79.392 Y97.114 E.02782
;WIDTH:0.606838
G1 X79.045 Y97.641 E.02959
;WIDTH:0.607824
G1 X78.624 Y97.999 E.02596
G1 X78.086 Y98.245 E.0278
;WIDTH:0.607394
G1 X77.476 Y98.33 E.02888
;WIDTH:0.599542
G1 X76.83 Y98.215 E.03037
;WIDTH:0.607826
G1 X76.376 Y97.999 E.02364
G1 X75.922 Y97.607 E.02817
;WIDTH:0.601708
G1 X75.581 Y97.044 E.03059
;WIDTH:0.608138
G1 X75.442 Y96.546 E.0243
G1 X75.44 Y95.954 E.02783
;WIDTH:0.603388
G1 X75.636 Y95.332 E.0304
;WIDTH:0.608318
G1 X75.929 Y94.889 E.02497
G1 X76.318 Y94.542 E.02447
;WIDTH:0.59378
G1 X76.574 Y94.401 E.01339
M204 S1250
; stop printing object Nozzle2mm.STL id:4 copy 0
M106 S84.15
;LAYER_CHANGE
;Z:0.45
;HEIGHT:0.25
;BEFORE_LAYER_CHANGE
G92 E0.0
;0.45


G1 E-2.24 F4200
;WIPE_START
G1 F7200
G1 X76.999 Y94.235 E-.25332
G1 X77.5 Y94.171 E-.27967
G1 X78.086 Y94.254 E-.32804
G1 X78.169 Y94.294 E-.05097
;WIPE_END
G1 E-.048 F4200
G1 Z.4 F9000
G1 Z.45
;AFTER_LAYER_CHANGE
;0.45
G1 Z.65
G1 X72.283 Y94.294
G1 Z.45
G1 E3.2 F2400
;TYPE:Skirt/Brim
;WIDTH:0.42
G1 F1428
G1 X72.283 Y83.554 E.40897
G1 X72.364 Y82.813 E.02836
G1 X72.55 Y82.092 E.02836
G1 X73.005 Y81.095 E.04173
G1 X73.686 Y80.185 E.04327
G1 X74.514 Y79.467 E.04173
G1 X75.154 Y79.086 E.02836
G1 X75.842 Y78.8 E.02836
G1 X76.563 Y78.614 E.02836
G1 X77.5 Y78.526 E.03583
G1 X102.696 Y78.533 E.95942
G1 X103.781 Y78.689 E.04173
G1 X104.489 Y78.923 E.02837
G1 X105.486 Y79.467 E.04327
G1 X106.065 Y79.936 E.02836
G1 X106.751 Y80.722 E.0397
G1 X107.164 Y81.404 E.03038
G1 X107.45 Y82.092 E.02837
G1 X107.692 Y83.202 E.04326
G1 X107.692 Y96.798 E.5177
G1 X107.45 Y97.908 E.04327
G1 X106.995 Y98.905 E.04173
G1 X106.314 Y99.815 E.04327
G1 X105.486 Y100.533 E.04173
G1 X104.846 Y100.914 E.02836
G1 X104.158 Y101.2 E.02837
G1 X103.437 Y101.386 E.02836
G1 X102.5 Y101.474 E.03583
G1 X77.304 Y101.467 E.95942
G1 X76.219 Y101.311 E.04173
G1 X75.512 Y101.077 E.02836
G1 X74.845 Y100.745 E.02836
G1 X73.935 Y100.064 E.04327
G1 X73.217 Y99.236 E.04173
G1 X72.836 Y98.596 E.02836
G1 X72.55 Y97.908 E.02836
G1 X72.364 Y97.187 E.02836
G1 X72.283 Y96.446 E.02836
G1 X72.283 Y94.354 E.07968
G1 X72.659 Y94.354 F9000
G1 F1428
G1 X72.659 Y83.58 E.41023
G1 X72.903 Y82.223 E.0525
G1 X73.336 Y81.276 E.03968
G1 X73.953 Y80.452 E.03918
G1 X74.74 Y79.769 E.03968
G1 X75.974 Y79.153 E.0525
G1 X76.643 Y78.983 E.02631
G1 X77.5 Y78.903 E.03276
G1 X102.67 Y78.909 E.9584
G1 X103.701 Y79.058 E.03968
G1 X104.357 Y79.276 E.02632
G1 X105.26 Y79.769 E.03918
G1 X105.798 Y80.203 E.02632
G1 X106.449 Y80.948 E.03766
G1 X106.833 Y81.585 E.02833
G1 X107.097 Y82.224 E.02632
G1 X107.316 Y83.229 E.03918
G1 X107.316 Y96.771 E.51565
G1 X107.097 Y97.777 E.03918
G1 X106.664 Y98.724 E.03968
G1 X106.047 Y99.548 E.03918
G1 X105.26 Y100.231 E.03968
G1 X104.026 Y100.847 E.0525
G1 X103.357 Y101.017 E.02631
G1 X102.5 Y101.097 E.03276
G1 X77.33 Y101.091 E.9584
G1 X75.973 Y100.847 E.0525
G1 X75.026 Y100.414 E.03968
G1 X74.202 Y99.797 E.03918
G1 X73.519 Y99.01 E.03968
G1 X72.903 Y97.776 E.0525
G1 X72.659 Y96.42 E.0525
G1 X72.659 Y94.414 E.07637
; printing object Nozzle2.6x0.4.STL id:3 copy 0
G1 E-2.24 F4200
;WIPE_START
G1 F7200
G1 X72.659 Y92.768 E-.912
;WIPE_END
G1 E-.048 F4200
G1 Z.65 F9000
G1 X104.301 Y84.83
G1 Z.45
G1 E3.2 F2400
M204 S800
;TYPE:External perimeter
;WIDTH:0.639902
G1 F1428
G1 X104.085 Y85.113 E.02171
;WIDTH:0.630634
G1 X103.797 Y85.396 E.02419
;WIDTH:0.647864
G1 X103.372 Y85.659 E.03092
G1 X102.799 Y85.829 E.0369
;WIDTH:0.644436
G1 X102.201 Y85.829 E.03674
G1 X101.826 Y85.731 E.02379
;WIDTH:0.648404
G1 X101.372 Y85.521 E.03089
G1 X100.907 Y85.119 E.03803
;WIDTH:0.641086
G1 X100.563 Y84.552 E.04047
;WIDTH:0.647644
G1 X100.423 Y84.049 E.03228
G1 X100.42 Y83.45 E.03694
;WIDTH:0.646296
G1 X100.584 Y82.894 E.03574
;WIDTH:0.64895
G1 X100.729 Y82.622 E.01904
G1 X101.125 Y82.164 E.03751
;WIDTH:0.646636
G1 X101.612 Y81.847 E.03581
;WIDTH:0.639986
G1 X101.965 Y81.728 E.02264
;WIDTH:0.649418
G1 X102.489 Y81.651 E.03285
G1 X103.092 Y81.735 E.03767
;WIDTH:0.64484
G1 X103.694 Y82.027 E.04114
;WIDTH:0.647816
G1 X104.086 Y82.376 E.03241
G1 X104.41 Y82.878 E.03689
;WIDTH:0.645652
G1 X104.58 Y83.451 E.03679
;WIDTH:0.642852
G1 X104.584 Y83.508 E.0035
;WIDTH:0.647708
G1 X104.577 Y84.049 E.03342
G1 X104.453 Y84.509 E.02938
;WIDTH:0.639902
G1 X104.327 Y84.776 E.01801
M204 S1250
; stop printing object Nozzle2.6x0.4.STL id:3 copy 0
